X: 84
T: Aman Ey Şûh-i Nâzende
C: II. Mahmut (Adlî)
O: Turkey
F: http://compmusic.upf.edu/node/140
N: hisarbuselik--sarki--aksak--aman_ey_suh-i--ii_mahmud
N: makam= hisarbuselik
N: form= sarki
N: usul= aksak = 9/8
M: 9/8
L: 1/16
K: C _1/4B   
Q: 1/4=120
%%MIDI tuningsystem comma53
e3/2^d/ea ^gfed c3/2=B/Ac BA^GF E2 | \
w:  ARANAĞME  | 
ef2ee^d2cef2eed/c/ =B/A/^G/F/E2  | 
w:   | 
e3/2^d/ea ^gfed c3/2=B/Ac BA^GF E/F/G/A/ | \
w:   | 
=Bc dede2dcB A^GA6  | 
w:   | 
e3/2^d/ea ^gfed c3/2=B/Ac BA^GF E2 | \
w:  ARANAĞME  | 
ef2ee^d2cef2eed/c/ =B/A/^G/F/E2  | 
w:   | 
e3/2^d/ea ^gfed c3/2=B/Ac BA^GF E/F/G/A/ | \
w:   | 
=Bc dede2dcB A^GA6  | 
w:   | 
ee3 e2^gf f2fe ^d2e4 | e3/2f/ edc=B A2ed cde2 f2ef  | 
w:  A man  ey  *  *  *  *  *  şûh_  |  i  *  *  *  nâ *  *  zen *  *  *  de    | 
e2z2 a^ggf fe2d edc=B c2 | dc =Bcdf eddc2BcB A^GA2  | 
w:  Gül  gi *  *  *  bi  *  *  e  |  der *  *  *  *  *  *  *  sin  *  *  han  | 
=BcBc d3/2f/ed cBA^G A4 ^g2 | a4a3a=bc' ba^ga bc'ac'  | 
w:  de   *  *  *  *  *  *  *  *  *  *  *  *  SAZ  |  *  Dil de  he *  *  *  vâ   | 
=b2z2 d'c'c'b ba^gf efga gf | e2 z2e2 ^gffe2ded c=Bc2  | 
w:  *  aş *  kın  *  ten *  *  *  de    |  *  Nâ zik  *  mi *  *  sal   | 
dc=Bc d3/2f/ed dcBc d_edc Bd | c4zc =Bcd3/2f/ eded cBA^G  | 
w:  gön *  *  *  lüm  *  *  *  sen *  *  *  de    |  *  Eğ *  le ne *  *  *  mem   | 
A3e dfed dc2=B cBA^G A2 | =Bc Bcd3/2f/ edcB A^GA4z2  | 
w:  sen *  *  *  *  *  siz  *  *  ben  |  de    | 
e3/2^d/ea ^gfed c3/2=B/Ac BA^GF E2 | \
w:  ARANAĞME  | 
ef2ee^d2cef2eed/c/ =B/A/^G/F/E2  | 
w:   | 
e3/2^d/ea ^gfed c3/2=B/Ac BA^GF E/F/G/A/ | \
w:   | 
=Bc dede2dcB A^GA6  | 
w:   | 
e3/2^d/ea ^gfed c3/2=B/Ac BA^GF E2 | \
w:  ARANAĞME  | 
ef2ee^d2cef2eed/c/ =B/A/^G/F/E2  | 
w:   | 
e3/2^d/ea ^gfed c3/2=B/Ac BA^GF E/F/G/A/ | \
w:   | 
=Bc dede2dcB A^GA6  | 
w:   | 
ee3 e2^gf f2fe ^d2e4 | e3/2f/ edc=B A2ed cde2 f2ef  | 
w:  A man  ey  *  *  *  *  *  şûh_  |  i  *  *  *  nâ *  *  zen *  *  *  de    | 
e2z2 a^ggf fe2d edc=B c2 | dc =Bcdf eddc2BcB A^GA2  | 
w:  Gül  gi *  *  *  bi  *  *  e  |  der *  *  *  *  *  *  *  sin  *  *  han  | 
=BcBc d3/2f/ed cBA^G A4 ^g2 | a4a3a=bc' ba^ga bc'ac'  | 
w:  de   *  *  *  *  *  *  *  *  *  *  *  *  SAZ  |  *  Dil de  he *  *  *  vâ   | 
=b2z2 d'c'c'b ba^gf efga gf | e2 z2e2 ^gffe2ded c=Bc2  | 
w:  *  aş *  kın  *  ten *  *  *  de    |  *  Nâ zik  *  mi *  *  sal   | 
dc=Bc d3/2f/ed dcBc d_edc Bd | c4zc =Bcd3/2f/ eded cBA^G  | 
w:  gön *  *  *  lüm  *  *  *  sen *  *  *  de    |  *  Eğ *  le ne *  *  *  mem   | 
A3e dfed dc2=B cBA^G A2 | =Bc Bcd3/2f/ edcB A^GA4z2  | 
w:  sen *  *  *  *  *  siz  *  *  ben  |  de    | 
|


